archdroid-icon-theme/Archdroid-Amber/places/scalable/distributor-logo.svg

<svg height="128" width="128" xmlns="http://www.w3.org/2000/svg" xmlns:xlink="http://www.w3.org/1999/xlink"><linearGradient id="a" gradientTransform="matrix(-.2652794 0 0 .2652645 207.89862 -12.55861)" gradientUnits="userSpaceOnUse" x1="541.33502" x2="606.91248" y1="104.50665" y2="303.14029"><stop offset="0" stop-color="#fff" stop-opacity="0"/><stop offset="1" stop-color="#fff" stop-opacity=".27451"/></linearGradient><g fill-rule="evenodd" stroke-linejoin="round" stroke-miterlimit="10" transform="matrix(.6736842 0 0 .6736842 -451.20009273421 -293.47245848024)"><path d="m128 0c-11.39482 27.937051-18.31337 46.237163-31 73.34375 7.7785 8.245207 17.33826 17.811753 32.84375 28.65625-16.66992-6.859577-28.03357-13.728504-36.53125-20.875-16.236461 33.87989-41.690855 82.12139-93.3125 174.875 40.562707-23.41756 72.007597-37.86167 101.3125-43.375-1.25376-5.40435-1.923505-11.27752-1.875-17.375l.03125-1.28125c.64379-25.99398 14.16934-45.98224 30.1875-44.625 16.01815 1.35723 28.48754 23.53727 27.84375 49.53125-.12127 4.89622-.6905 9.60082-1.65625 13.96875 28.98953 5.67316 60.13787 20.05292 100.15625 43.15625-7.89193-14.52962-14.96051-27.61983-21.6875-40.09375-10.59609-8.21269-21.64301-18.89743-44.1875-30.46875 15.4958 4.02645 26.60184 8.6825 35.25 13.875-68.39515-127.339832-73.92078-144.272124-97.375-199.3125z" fill="#1793d1" stroke-linecap="round" transform="matrix(.7421875 0 0 .7421875 669.75015 435.62318)"/><path d="m818.22607 548.55277c-41.18143-55.89508-50.72685-100.94481-53.14467-111.70015 21.96737 50.6686 21.81733 51.28995 53.14467 111.70015z" fill="#fff" fill-opacity=".16568" stroke-width="36.099998"/><path d="m64.25.5625c-.709431 1.744053-1.406947 3.420829-2.0625 5.03125-.728354 1.789204-1.43661 3.51291-2.125 5.1875-.688337 1.674611-1.354919 3.324465-2.03125 4.9375-.676372 1.61311-1.370189 3.207878-2.0625 4.8125-.692264 1.604561-1.388844 3.194653-2.125 4.84375-.736155 1.649152-1.504571 3.347022-2.3125 5.09375-.807997 1.746742-1.654846 3.540181-2.5625 5.4375-.123667.258501-.280434.550644-.40625.8125 3.878876 4.108773 8.660438 8.885706 16.375 14.28125-8.313487-3.420951-14.004734-6.84292-18.25-10.40625-.21918.447437-.399232.854397-.625 1.3125-.83219 1.68868-1.756518 3.523935-2.6875 5.375-.227333.452004-.422489.849784-.65625 1.3125-.105529.211775-.236811.44221-.34375.65625-3.647487 7.300522-8.134834 15.978733-13.875 26.71875 16.222751-9.145022 33.749479-22.285761 65.53125-10.9375-1.594664-3.020254-3.06067-5.868296-4.4375-8.53125-1.376808-2.663033-2.655975-5.141769-3.84375-7.5-1.187678-2.358184-2.285213-4.581525-3.3125-6.6875-1.027274-2.10593-1.979504-4.093635-2.875-6-.895549-1.906324-1.738819-3.740721-2.53125-5.5-.792482-1.759259-1.531878-3.46028-2.25-5.125-.718195-1.664808-1.421319-3.283527-2.09375-4.90625-.672492-1.622771-1.313327-3.241619-1.96875-4.875-.259239-.645913-.521558-1.315448-.78125-1.96875-1.769204-4.155137-3.590483-8.448793-5.6875-13.375z" fill="url(#a)" stroke-linecap="round" stroke-width=".714167" transform="matrix(1.484375 0 0 1.484375 669.75015 435.62319)"/></g></svg>

<svg height="128" version="1.0" width="128" xmlns="http://www.w3.org/2000/svg" xmlns:xlink="http://www.w3.org/1999/xlink"><defs><linearGradient id="a" gradientTransform="matrix(-.2652794 0 0 .2652645 207.89862 -12.55861)" gradientUnits="userSpaceOnUse" x1="541.33502" x2="606.91248" xlink:href="#b" y1="104.50665" y2="303.14029"/><linearGradient id="b" gradientTransform="translate(287 -83)" gradientUnits="userSpaceOnUse" x1="112.49854" x2="112.49853" y1="6.13721" y2="129.3468"><stop offset="0" stop-color="#fff" stop-opacity="0"/><stop offset="1" stop-color="#fff" stop-opacity=".27451"/></linearGradient></defs><g transform="translate(-269.51782 -201.60125)"><g transform="matrix(1.3473684 0 0 1.3473684 -632.88236 -513.34366)"><g transform="matrix(.5 0 0 .5 334.87507 312.81159)"><path d="M128 0C116.60518 27.937051 109.68663 46.237163 97 73.34375 104.7785 81.588957 114.33826 91.155503 129.84375 102 113.17383 95.140423 101.81018 88.271496 93.3125 81.125 77.076039 115.00489 51.621645 163.24639 0 256 40.562707 232.58244 72.007597 218.13833 101.3125 212.625 100.05874 207.22065 99.388995 201.34748 99.4375 195.25L99.46875 193.96875C100.11254 167.97477 113.63809 147.98651 129.65625 149.34375 145.6744 150.70098 158.14379 172.88102 157.5 198.875 157.37873 203.77122 156.8095 208.47582 155.84375 212.84375 184.83328 218.51691 215.98162 232.89667 256 256 248.10807 241.47038 241.03949 228.38017 234.3125 215.90625 223.71641 207.69356 212.66949 197.00882 190.125 185.4375 205.6208 189.46395 216.72684 194.12 225.375 199.3125 156.97985 71.972668 151.45422 55.040376 128 0z" fill="#1793d1" fill-rule="evenodd" stroke-linecap="round" stroke-linejoin="round" stroke-miterlimit="10" transform="matrix(.7421875 0 0 .7421875 669.75015 435.62318)"/><path d="M818.22607 548.55277C777.04464 492.65769 767.49922 447.60796 765.0814 436.85262 787.04877 487.52122 786.89873 488.14257 818.22607 548.55277z" fill="#fff" fill-opacity=".16568" fill-rule="evenodd" stroke-linejoin="round" stroke-miterlimit="10" stroke-width="36.099998"/><path d="M64.25.5625C63.540569 2.306553 62.843053 3.983329 62.1875 5.59375 61.459146 7.382954 60.75089 9.10666 60.0625 10.78125 59.374163 12.455861 58.707581 14.105715 58.03125 15.71875 57.354878 17.33186 56.661061 18.926628 55.96875 20.53125 55.276486 22.135811 54.579906 23.725903 53.84375 25.375 53.107595 27.024152 52.339179 28.722022 51.53125 30.46875 50.723253 32.215492 49.876404 34.008931 48.96875 35.90625 48.845083 36.164751 48.688316 36.456894 48.5625 36.71875 52.441376 40.827523 57.222938 45.604456 64.9375 51 56.624013 47.579049 50.932766 44.15708 46.6875 40.59375 46.46832 41.041187 46.288268 41.448147 46.0625 41.90625 45.23031 43.59493 44.305982 45.430185 43.375 47.28125 43.147667 47.733254 42.952511 48.131034 42.71875 48.59375 42.613221 48.805525 42.481939 49.03596 42.375 49.25 38.727513 56.550522 34.240166 65.228733 28.5 75.96875 44.722751 66.823728 62.249479 53.682989 94.03125 65.03125 92.436586 62.010996 90.97058 59.162954 89.59375 56.5 88.216942 53.836967 86.937775 51.358231 85.75 49 84.562322 46.641816 83.464787 44.418475 82.4375 42.3125 81.410226 40.20657 80.457996 38.218865 79.5625 36.3125 78.666951 34.406176 77.823681 32.571779 77.03125 30.8125 76.238768 29.053241 75.499372 27.35222 74.78125 25.6875 74.063055 24.022692 73.359931 22.403973 72.6875 20.78125 72.015008 19.158479 71.374173 17.539631 70.71875 15.90625 70.459511 15.260337 70.197192 14.590802 69.9375 13.9375 68.168296 9.782363 66.347017 5.488707 64.25.5625z" fill="url(#a)" fill-rule="evenodd" stroke-linecap="round" stroke-linejoin="round" stroke-miterlimit="10" stroke-width=".714167" transform="matrix(1.484375 0 0 1.484375 669.75015 435.62319)"/></g></g></g></svg>
